src/assets/images/chat_room.svg

<svg width="24" height="24" viewBox="0 0 24 24" fill="none" xmlns="http://www.w3.org/2000/svg">
<path fill-rule="evenodd" clip-rule="evenodd" d="M7.69518 13.3909C7.05042 13.3909 6.52661 12.8671 6.52661 12.2223C6.52661 11.5795 7.05042 11.0557 7.69518 11.0557C8.33994 11.0557 8.86375 11.5795 8.86375 12.2223C8.86375 12.8671 8.33994 13.3909 7.69518 13.3909ZM12.238 13.3909C11.5933 13.3909 11.0695 12.8671 11.0695 12.2223C11.0695 11.5795 11.5933 11.0557 12.238 11.0557C12.8828 11.0557 13.4066 11.5795 13.4066 12.2223C13.4066 12.8671 12.8828 13.3909 12.238 13.3909ZM15.6124 12.2223C15.6124 12.8671 16.1362 13.3909 16.781 13.3909C17.4258 13.3909 17.9496 12.8671 17.9496 12.2223C17.9496 11.5795 17.4258 11.0557 16.781 11.0557C16.1362 11.0557 15.6124 11.5795 15.6124 12.2223Z" fill="black" fill-opacity="0.6"/>
<path fill-rule="evenodd" clip-rule="evenodd" d="M12.02 2C6.21 2 2 6.74612 2 12.015C2 13.6975 2.49 15.4291 3.35 17.0115C3.51 17.2729 3.53 17.6024 3.42 17.9139L2.75 20.1572C2.6 20.698 3.06 21.0976 3.57 20.9374L5.59 20.3375C6.14 20.1572 6.57 20.3866 7.08 20.698C8.54 21.5583 10.36 22 12 22C16.96 22 22 18.1642 22 11.985C22 6.65598 17.7 2 12.02 2Z" stroke="black" stroke-opacity="0.6" stroke-width="1.5" stroke-linecap="round" stroke-linejoin="round"/>
</svg>

<svg width="24" height="24" viewBox="0 0 24 24" fill="none" xmlns="http://www.w3.org/2000/svg">
    <path fill-rule="evenodd" clip-rule="evenodd" d="M7.696 13.39a1.17 1.17 0 0 1-1.169-1.168 1.169 1.169 0 0 1 2.337 0 1.17 1.17 0 0 1-1.168 1.169zm4.543 0a1.17 1.17 0 0 1-1.169-1.168 1.169 1.169 0 0 1 2.337 0 1.17 1.17 0 0 1-1.168 1.169zm3.374-1.168a1.17 1.17 0 0 0 2.337 0 1.169 1.169 0 0 0-2.337 0z" fill="#000" fill-opacity=".6"/>
    <path clip-rule="evenodd" d="M12.02 2C6.21 2 2 6.746 2 12.015c0 1.682.49 3.414 1.35 4.997.16.26.18.59.07.902l-.67 2.243c-.15.541.31.94.82.78l2.02-.6c.55-.18.98.05 1.49.361C8.54 21.558 10.36 22 12 22c4.96 0 10-3.836 10-10.015C22 6.656 17.7 2 12.02 2z" stroke="#000" stroke-opacity=".6" stroke-width="1.5" stroke-linecap="round" stroke-linejoin="round"/>
</svg>
